X:1
T:II. Sweet stay a while,
T:II. Sweet stay a while,
T:To my worthy friend Mr. William Jewel of Exceter Colledge in Oxford. CANTUS.
T:John Dowland
C:John Dowland
L:1/8
M:4/4
K:C
V:1 treble 
V:1
 c12 A8 A4 ^F12 | z2 E2 A4 ^G4 |[M:4/4] A4 z2 B2 c3 d B2 z c | A2 BA ^G4 | z4 z2 A4 G4 F2 | %5
w: Sweet stay a while,|why will you|rise? The light you see comes|from your * eyes:|The day breakes|
w: Deare let me dye|in this faire|breast, Farre sweet- er than the|Phoe- nix * nest.|Love raise de-|
 E3 e d3 d | c4 z4 z2 A2 d3 c | B2 c2 B3 B A8 |: z4 z2 d8 c2 | z4 z2 e4 dA c3 c | B2 G B2 ^F F>^E | %11
w: not, it is my|heart, To thinke that|you and I must part.|O stay,|O stay, or else my|joyes, my joyes, my joyes must|
w: sire by his sweete|charmes With- in this|cir- cle of thine armes:|And let,|and let, thy blisse- full|kiss- es, kiss- es cher- *|
 E8 z2 c2 E3 ^F | ^G4 A2 A4 GF G4 !fermata!A8 :| %13
w: dye, And pe- rish|in their in- fan- * * cie.|
w: ish Mine in- fant|joyes, that else must * per- ish.|

